src/assets/img/github-light.svg

<svg height="30" viewBox="0 0 19 22" width="22" xmlns="http://www.w3.org/2000/svg"><path d="m58.8972767 19.6145492v-2.1211464c0-1.1149467-.3744343-1.9349994-1.1234112-2.4602136.4692881-.046053.9000825-.1105714 1.2925997-.1934999.3925172-.0829286.807665-.2027327 1.2452269-.3593571.4376702-.1566244.8301873-.3432136 1.1775515-.5597677.3474724-.2165541.6813015-.4975713 1.0015955-.8431069.3204023-.3455356.5887758-.7371242.805337-1.1748211s.3880777-.962911.5143329-1.5756424c.1263634-.61273139.189491-1.28771448.189491-2.0248387 0-1.42819546-.4556448-2.64448083-1.3670426-3.64885612.4151478-1.10571397.3699948-2.30817792-.1353507-3.60739184-.6632187.02148771-1.1978542.1090234-1.6039064.26260707-.6090784.23037551-1.2925997.60814269-2.0505639 1.13335682-1.0737104-.30407134-2.1881343-.45610701-3.3431093-.45610701-1.1640165 0-2.2738926.15203567-3.3296285.45610701-.4782212-.33171419-1.116607-.82156644-1.9358608-1.13335682-.5461693-.20786025-1.1235507-.29539594-1.7321445-.26260707-.3669629 1.67394039-.4120798 2.87640433-.1353507 3.60739184-.9113437 1.00437529-1.3670426 2.22066066-1.3670426 3.64885612 0 .73712422.0631817 1.41210731.189491 2.0248387.1263094.6127314.2977717 1.1379455.5143329 1.5756424s.4849888.8292855.805337 1.1748211c.3203481.3455356.6541772.6265528 1.0015955.8431069s.7399355.4031433 1.1775515.5597677c.4376161.1566244.8527097.2764285 1.2452269.3593571.3925172.0829285.8233657.1474469 1.2925997.1934999-.7399355.5159814-1.1098762 1.3360895-1.1098762 2.4602136v2.1625001c.4763612.9068642 1.6042751 1.3548702 3.3837417 1.3440183 1.7794666-.010852 2.9118922-.4726427 3.3972767-1.385372z" fill="none" stroke="#000" transform="translate(-46)"/></svg>

<svg
  id="githubLight"
  width="22"
  height="30"
  version="1.1"
  viewBox="0 0 19 22"
  xmlns="http://www.w3.org/2000/svg"
>
  <g fill="none" fillRule="evenodd" stroke="#000" strokeWidth="1">
    <g
      fillRule="nonzero"
      stroke="#000"
      transform="translate(-46.000000, -2.000000)"
    >
      <g transform="translate(0.000000, 2.000000)">
        <path
          d="M58.8972767,19.6145492 L58.8972767,17.4934028 C58.8972767,16.3784561 58.5228424,15.5584034 57.7738655,15.0331892 C58.2431536,14.9871362 58.673948,14.9226178 59.0664652,14.8396893 C59.4589824,14.7567607 59.8741302,14.6369566 60.3116921,14.4803322 C60.7493623,14.3237078 61.1418794,14.1371186 61.4892436,13.9205645 C61.836716,13.7040104 62.1705451,13.4229932 62.4908391,13.0774576 C62.8112414,12.731922 63.0796149,12.3403334 63.2961761,11.9026365 C63.5127373,11.4649396 63.6842538,10.9397255 63.810509,10.3269941 C63.9368724,9.71426271 64,9.03927962 64,8.3021554 C64,6.87395994 63.5443552,5.65767457 62.6329574,4.65329928 C63.0481052,3.54758531 63.0029522,2.34512136 62.4976067,1.04590744 C61.834388,1.06739515 61.2997525,1.15493084 60.8937003,1.30851451 C60.2846219,1.53889002 59.6011006,1.9166572 58.8431364,2.44187133 C57.769426,2.13779999 56.6550021,1.98576432 55.5000271,1.98576432 C54.3360106,1.98576432 53.2261345,2.13779999 52.1703986,2.44187133 C51.6921774,2.11015714 51.0537916,1.62030489 50.2345378,1.30851451 C49.6883685,1.10065426 49.1109871,1.01311857 48.5023933,1.04590744 C48.1354304,2.71984783 48.0903135,3.92231177 48.3670426,4.65329928 C47.4556989,5.65767457 47,6.87395994 47,8.3021554 C47,9.03927962 47.0631817,9.71426271 47.189491,10.3269941 C47.3158004,10.9397255 47.4872627,11.4649396 47.7038239,11.9026365 C47.9203851,12.3403334 48.1888127,12.731922 48.5091609,13.0774576 C48.829509,13.4229932 49.1633381,13.7040104 49.5107564,13.9205645 C49.8581747,14.1371186 50.2506919,14.3237078 50.6883079,14.4803322 C51.125924,14.6369566 51.5410176,14.7567607 51.9335348,14.8396893 C52.326052,14.9226178 52.7569005,14.9871362 53.2261345,15.0331892 C52.486199,15.5491706 52.1162583,16.3692787 52.1162583,17.4934028 L52.1162583,19.6559029 C52.5926195,20.5627671 53.7205334,21.0107731 55.5,20.9999212 C57.2794666,20.9890692 58.4118922,20.5272785 58.8972767,19.6145492 Z"
        />
      </g>
    </g>
  </g>
</svg>
